packages/foundations/assets/icons/functional/images/logos/db_32.svg

<svg width="32" height="32" viewBox="0 0 32 32" fill="none" xmlns="http://www.w3.org/2000/svg">
<g clip-path="url(#clip0_185_1696)">
<path fill-rule="evenodd" clip-rule="evenodd" d="M26.6667 6.66667C28.1394 6.66667 29.3333 7.86061 29.3333 9.33337V22.648C29.3363 24.125 28.1437 25.326 26.6667 25.3334H5.34669C3.87175 25.3334 2.67402 24.1416 2.66669 22.6667V9.33337C2.66669 8.62381 2.94946 7.9435 3.45244 7.44302C3.95543 6.94254 4.63713 6.66316 5.34669 6.66667H26.6667ZM26.6667 8.56004H5.34669C5.14531 8.56051 4.95291 8.64347 4.81435 8.7896C4.67578 8.93573 4.60314 9.13225 4.61335 9.33337V22.648C4.60613 22.8473 4.6801 23.0411 4.81834 23.1848C4.95657 23.3286 5.14724 23.4101 5.34669 23.4107H26.6667C26.8638 23.4065 27.051 23.3235 27.1864 23.1801C27.3217 23.0367 27.3939 22.8451 27.3867 22.648V9.33337C27.3968 9.13453 27.326 8.94007 27.1903 8.79436C27.0546 8.64864 26.8657 8.56411 26.6667 8.56004ZM10.8214 9.8907C13.9813 9.8907 15.728 11.8694 15.728 15.944C15.7333 19.48 14.5467 22.08 10.8214 22.1094H6.33602V9.8907H10.8214ZM22.112 9.89604C25.5493 9.89604 25.6 12.6187 25.6 12.872C25.5874 14.1849 24.7234 15.3373 23.4667 15.7174C25.6907 16.2 26.0427 17.816 26.0427 18.6747C26.0427 21.9532 22.7941 22.1023 21.5038 22.109L17.0133 22.1094V9.89604H22.112ZM9.86402 11.8134H9.26935V20.128H10.312C11.8667 20.128 12.7707 18.8854 12.7707 16.1974C12.7707 13.736 12.504 11.8134 9.86402 11.8134ZM21.2027 16.9894H19.92V20.128L21.1821 20.1279C21.7131 20.1257 23.0987 20.0677 23.0987 18.56C23.0987 17.8774 22.7253 16.9894 21.2027 16.9894ZM20.8427 11.7787H19.92V14.728H21.08C22.104 14.728 22.68 14.0507 22.68 13.2507C22.68 12.2374 22.1573 11.7787 20.8427 11.7787Z" fill="#1A1C1F"/>
</g>
<defs>
<clipPath id="clip0_185_1696">
<rect width="32" height="32" fill="white"/>
</clipPath>
</defs>
</svg>

<svg xmlns="http://www.w3.org/2000/svg" width="32" height="32" fill="none"><g clip-path="url(#a)"><path fill="#1A1C1F" fill-rule="evenodd" d="M26.667 6.667a2.667 2.667 0 0 1 2.666 2.666v13.315a2.68 2.68 0 0 1-2.666 2.685H5.347a2.68 2.68 0 0 1-2.68-2.666V9.333a2.667 2.667 0 0 1 2.68-2.666zm0 1.893H5.347a.736.736 0 0 0-.734.773v13.315a.736.736 0 0 0 .734.763h21.32a.736.736 0 0 0 .72-.763V9.333a.736.736 0 0 0-.72-.773M10.82 9.89c3.16 0 4.907 1.98 4.907 6.054.005 3.536-1.181 6.136-4.907 6.165H6.336V9.891zm11.291.006c3.437 0 3.488 2.723 3.488 2.976a3 3 0 0 1-2.133 2.845c2.224.483 2.576 2.099 2.576 2.958 0 3.278-3.249 3.427-4.54 3.434h-4.49V9.896zM9.864 11.813h-.595v8.315h1.043c1.555 0 2.459-1.243 2.459-3.93 0-2.462-.267-4.385-2.907-4.385m11.339 5.176H19.92v3.139h1.262c.531-.002 1.917-.06 1.917-1.568 0-.683-.374-1.57-1.896-1.57m-.36-5.21h-.923v2.949h1.16c1.024 0 1.6-.677 1.6-1.477 0-1.014-.523-1.472-1.837-1.472" clip-rule="evenodd"/></g><defs><clipPath id="a"><path fill="#fff" d="M0 0h32v32H0z"/></clipPath></defs></svg>
